src/images/popup-icon-tel.svg

<svg width="25" height="25" viewBox="0 0 25 25" fill="none" xmlns="http://www.w3.org/2000/svg">
<path fill-rule="evenodd" clip-rule="evenodd" d="M3.99823 4.48828C3.69292 6.59938 3.39201 12.3009 7.87231 16.7812C12.3526 21.2615 18.0541 20.9606 20.1652 20.6553V16.3354L15.7293 15.5961L15.0596 16.9355C14.8902 17.2743 14.544 17.4883 14.1652 17.4883V16.4883C14.1652 17.4883 14.1647 17.4883 14.1642 17.4883L14.1632 17.4883L14.1609 17.4883L14.1559 17.4882L14.1435 17.4881C14.1343 17.4879 14.1231 17.4877 14.11 17.4873C14.0838 17.4864 14.0499 17.4849 14.0088 17.4822C13.9267 17.4767 13.8158 17.4664 13.68 17.447C13.4087 17.4082 13.0371 17.333 12.599 17.187C11.7193 16.8937 10.5803 16.3176 9.4581 15.1954C8.33593 14.0732 7.75976 12.9342 7.46652 12.0545C7.32048 11.6164 7.24526 11.2447 7.2065 10.9735C7.18711 10.8377 7.1768 10.7267 7.17133 10.6446C7.16859 10.6036 7.16706 10.5697 7.16621 10.5435C7.16579 10.5304 7.16554 10.5192 7.16539 10.51L7.16524 10.4976L7.16521 10.4926L7.16521 10.4903L7.1652 10.4893C7.1652 10.4888 7.1652 10.4883 8.1652 10.4883H7.1652C7.1652 10.1539 7.3323 9.8417 7.6105 9.65623L9.93538 8.10631L8.48817 4.48828H3.99823ZM9.23885 10.9744L11.0448 9.77041C11.8317 9.24579 12.1436 8.24166 11.7923 7.36353L10.3451 3.7455C10.0414 2.98618 9.30598 2.48828 8.48817 2.48828H3.94598C3.03747 2.48828 2.18229 3.11944 2.03315 4.10518C1.69384 6.34778 1.23199 12.9693 6.4581 18.1954C11.6842 23.4215 18.3057 22.9596 20.5483 22.6203C21.534 22.4712 22.1652 21.616 22.1652 20.7075V16.3354C22.1652 15.3577 21.4584 14.5233 20.494 14.3626L16.0581 13.6233C15.1921 13.479 14.3331 13.9164 13.9405 14.7017L13.594 15.3947C13.4851 15.3679 13.3635 15.3336 13.2314 15.2896C12.6111 15.0828 11.7501 14.659 10.8723 13.7812C9.99447 12.9033 9.57065 12.0423 9.36389 11.4221C9.30802 11.2544 9.26779 11.1037 9.23885 10.9744Z" fill="#999999"/>
</svg>

<svg xmlns="http://www.w3.org/2000/svg" width="25" height="25" fill="none"><path fill="#999" fill-rule="evenodd" d="M3.998 4.488c-.305 2.111-.606 7.813 3.874 12.293 4.48 4.48 10.182 4.18 12.293 3.874v-4.32l-4.436-.739-.67 1.34a1 1 0 0 1-.894.552v-1 1h-.055l-.101-.006a4.43 4.43 0 0 1-.329-.035 6.23 6.23 0 0 1-1.081-.26c-.88-.293-2.019-.87-3.14-1.992-1.123-1.122-1.7-2.26-1.992-3.14a6.225 6.225 0 0 1-.26-1.082 4.417 4.417 0 0 1-.042-.463v-.02c0-.001 0-.002 1-.002h-1a1 1 0 0 1 .446-.832l2.324-1.55-1.447-3.618h-4.49Zm5.24 6.486 1.807-1.204a2 2 0 0 0 .747-2.406l-1.447-3.619a2 2 0 0 0-1.857-1.257H3.946c-.909 0-1.764.631-1.913 1.617-.34 2.243-.801 8.864 4.425 14.09 5.226 5.227 11.848 4.765 14.09 4.425.986-.149 1.617-1.004 1.617-1.913v-4.372a2 2 0 0 0-1.671-1.972l-4.436-.74a2 2 0 0 0-2.117 1.079l-.347.693a4.71 4.71 0 0 1-.363-.105c-.62-.207-1.48-.631-2.359-1.509-.878-.878-1.301-1.739-1.508-2.359a4.594 4.594 0 0 1-.125-.448Z" clip-rule="evenodd"/></svg>
